packages/landing-ui/public/checkbox.svg

<svg width="20" height="21" viewBox="0 0 20 21" fill="none" xmlns="http://www.w3.org/2000/svg">
<path d="M19.375 0H0.625C0.279822 0 0 1.8804 0 4.2V16.8C0 19.1196 0.279822 21 0.625 21H19.375C19.7202 21 20 19.1196 20 16.8V4.2C20 1.8804 19.7202 0 19.375 0Z" fill="white"/>
<path d="M6.75502 15.784L2.20502 10.9899C1.93166 10.7019 1.93166 10.2349 2.20502 9.94682L3.19494 8.90377C3.4683 8.61572 3.91154 8.61572 4.1849 8.90377L7.25 12.1333L13.8151 5.21601C14.0885 4.928 14.5317 4.928 14.8051 5.21601L15.795 6.25907C16.0683 6.54709 16.0683 7.01408 15.795 7.30213L7.74498 15.784C7.47159 16.072 7.02838 16.072 6.75502 15.784Z" fill="#F6376D"/>
</svg>

<svg width="20" height="21" fill="none" xmlns="http://www.w3.org/2000/svg"><path d="M19.375 0H.625C.28 0 0 1.88 0 4.2v12.6c0 2.32.28 4.2.625 4.2h18.75c.345 0 .625-1.88.625-4.2V4.2c0-2.32-.28-4.2-.625-4.2z" fill="#fff"/><path d="M6.755 15.784l-4.55-4.794a.766.766 0 010-1.043l.99-1.043a.675.675 0 01.99 0l3.065 3.23 6.565-6.918a.675.675 0 01.99 0l.99 1.043a.766.766 0 010 1.043l-8.05 8.482a.675.675 0 01-.99 0z" fill="#F6376D"/></svg>
